X: 1
T: Burren, The
M: 4/4
L: 1/8
R: reel
K: Dmaj
|: B2 | ~A2AB AF~F2 | AFAd ~f3g | afef dBAB | dBAF EFDE |
~A2AB AF~F2 | AFAd ~f3g | afef dBAF | Adfe d2 :|
|:e2 | f2ed BA~A2 | dcdf a2^ga | g2fg edBc | dBAF EFDE |
~A2AB AF~F2 | AFAd ~f3g |afef dBAF | Adfe d2 :|
